src/topics/icons/canjs.svg

<svg height="102" preserveAspectRatio="xMidYMid" viewBox="0 0 256 102" width="256" xmlns="http://www.w3.org/2000/svg"><g fill="#1a1918"><path d="m185.537803 100.278986-5.51031-11.0206198 1.373746-.7472676c1.49724-.8148732 2.82231-1.6162254 3.979719-2.4085634 1.117746-.7661972 2.057014-1.5098591 2.820507-2.2381972.722028-.6868732 1.33769-1.4260281 1.847887-2.2273803.498479-.7824225.881578-1.6 1.149296-2.4626478h-.000902l.003606-.0117184c.067606-.2307605.136113-.4939718.206423-.7896338.075718-.3218028.137915-.6102535.184788-.8653521.28755-1.5477183.430874-3.3802817.403831-5.4742535v-45.5184225h16.736451v45.3390422c.005409.4002254.00631.8022536.002704 1.2051831-.004507.4263662-.012619.827493-.025239 1.2051831-.066704 2.0407888-.254197 4.0626479-.548958 6.0340282v.0018028c-.062197.423662-.131606.8238873-.206422 1.1997747-.073916.3722817-.163155.7643943-.267719 1.1745352-.507493 2.0047324-1.270986 3.9193239-2.274253 5.744676l-.00631.0063099c-.741859 1.3304789-1.652282 2.5888451-2.735775 3.7723944-1.066366 1.1655211-2.328338 2.288676-3.790422 3.3694647l-.01262.0126198h-.000901l-.000902-.0018029c-.433577.3190986-.852732.6120564-1.259267.8770705-.419155.2740281-.878874.556169-1.380057.8473239-2.426591 1.408-5.334535 2.6771831-8.739155 3.7931268l-1.324169.433577zm45.206535-13.859155c-1.59369 0-3.047662-.0495775-4.374535-.1379155-1.285409-.0865352-2.560902-.2217465-3.812057-.3939155l-.031549-.0063099c-1.178141-.1829859-2.296789-.3867042-3.346929-.6210704-1.092507-.2433803-2.097578-.5156056-3.001691-.8229859-.902309-.3082817-1.768563-.6535211-2.600563-1.024-.810366-.3614648-1.578366-.7454648-2.309408-1.1420845l-1.255662-.6823662 4.891943-12.4322254 1.481916.5489578h.000901l-.000901.0027042c.235267.0856338.452507.1631549.65262.2325634.05769.0207324.276732.0937465.645408.2154366 1.137577.3758873 2.204845.6814648 3.180169.9194366l.032451.0063099c.686873.1802817 1.402591.3380282 2.15076.4714366.771606.1370141 1.518874.2415775 2.245409.3127887h.037859c.74276.0901409 1.563944.1550423 2.460845.1992113.907718.044169 1.837972.064 2.795268.064h.000901c1.570253 0 2.914253-.1171831 4.042817-.3434366.252394-.0504789.426366-.0874366.521915-.1108732.812169-.1992113 1.48462-.4570141 2.023662-.7707043v-.0009014c.005409-.0027042.009916-.0063098.015324-.0099155l.002704-.0027042h.000902l.000901.0009014c.137916-.083831.282141-.1847887.431775-.3010704l.003606.0036056c.125295-.0982535.244281-.2046197.355155-.3190986.502985-.5147042.758084-1.1646197.765295-1.9371267-.013521-.4894648-.127098-.9293521-.338028-1.3250704-.229859-.4317747-.576-.8310986-1.033915-1.2033803h.000901c-.557972-.4344789-1.200676-.8545352-1.931718-1.2619719-.752676-.4200563-1.594592-.8229859-2.530254-1.2096901l-.000901.0027042c-1.068169-.4191549-2.110197-.8356056-3.126986-1.2493521-.837409-.3416338-1.938028-.7995493-3.303662-1.3746479-1.190761-.5011831-2.332845-1.0456338-3.424451-1.6369577-1.111436-.6021409-2.191324-1.2592676-3.23876-1.9776902l-.001803.0036057c-1.099718-.7337465-2.100282-1.5837747-3.005296-2.5446761-.897803-.9509859-1.687437-1.9984225-2.37431-3.1378028l-.008112-.0117183c-.203719-.339831-.392113-.6850704-.563381-1.0375211-.158648-.3263099-.317296-.6931831-.475042-1.1015212-.738254-1.9100845-1.130366-4.0941972-1.161014-6.5180845v-.0378591c.021634-1.4557747.18569-2.8205071.504789-4.1059155.322704-1.3043381.804056-2.511324 1.45307-3.6299719l.00631-.0135211c.634591-1.072676 1.381859-2.0498028 2.235493-2.9358873.856338-.8896901 1.802817-1.6757183 2.835831-2.363493l.018929-.0063098c1.047437-.684169 2.145353-1.2709859 3.300057-1.7658592 1.152901-.4939718 2.358084-.8969014 3.619155-1.2114929v.0009014c1.259267-.3344226 2.530253-.5741972 3.80845-.7301409 1.289014-.1559436 2.58524-.2289577 3.884169-.2289577h.002705c1.541408 0 2.93138.0495774 4.178028.1433239.284845.0207324.492169.0378592.620169.0486761.983436.0874366 1.972282.2172394 2.962028.3858028h.008113c.32.0549859.61476.1090704.885183.1622535.29476.0576902.578704.1162817.851831.1766761 1.426028.3127887 2.748394.6967887 3.966197 1.1510986.859944.3010704 1.647775.6030422 2.384225.9032112.763493.3118874 1.508958.6336902 2.234592.9563944l1.447662.6427042-5.026254 12.1032113-1.383662-.3948169-.001802-.0009014-.01262-.0063099c-1.334986-.3930141-2.670873-.7851267-3.907606-1.0852957l-.044169-.0063099c-.670648-.1829859-1.305239-.3335211-1.916394-.4597183-.675155-.1388169-1.359324-.2605071-2.057916-.3713803v.0009014c-.622873-.083831-1.359324-.1559437-2.229183-.2127324-.827493-.0540845-1.67662-.083831-2.548282-.083831-1.274591.0180282-2.335549.1216902-3.17476.315493-.719324.1658591-1.249352.3849014-1.585578.6589296l-.018929.0189295-.00631.0054085c-.118084.0928451-.217239.1784789-.295662.256-.077521.0766197-.153239.1604507-.226253.2523944-.304677.3849014-.445296.8274929-.429972 1.3196619l.000901.0072113c.003606.1135775.010817.2019155.022535.2632113.015324.0811267.036958.1631549.065803.2451831.167662.4813521.576902.9482817 1.226817 1.4016901l.044169.0378592c.562479.4218591 1.233127.832 1.99662 1.2385352.752676.4011267 1.64507.816676 2.646535 1.2484507l-.001803.004507c.747268.3163944.675155.2848451.864451.3650704.778817.3326198.718422.3055775.888789.3785916 1.367436.5886197 2.960225 1.2908169 4.778366 2.1056901 1.211493.5435493 2.370704 1.1267606 3.476732 1.7505352 1.11324.6273803 2.211155 1.315155 3.293747 2.0651268l.031549.0189296c1.079887.7833239 2.080451 1.6468732 2.988169 2.6032676.909521.9572958 1.71538 1.9966197 2.401352 3.1278873v-.0009014c.738254 1.1637183 1.297127 2.4473239 1.675718 3.8580282.372282 1.3827605.568789 2.8772957.589522 4.4881126v.0558874c-.007212.5074929-.02524.9572957-.054986 1.3503098-.026141.3605634-.075719.7941409-.14693 1.2989296-.314592 2.2237747-.996056 4.2095775-2.044394 5.9556056-.727437 1.2123944-1.566648 2.2940845-2.523944 3.2513803-.969014.9690141-2.056113 1.8181409-3.268507 2.5536902h-.01262c-1.214197.7247324-2.466253 1.3476056-3.770591 1.8668169-1.300733.5183098-2.680789.9455774-4.155493 1.2827042-1.444958.3308169-2.897127.5778028-4.366423.7418591-1.486422.1667606-2.975549.2496902-4.478197.2496902z"/><path d="m54.3035493 80.2208451c-9.9163944 2.7601126-21.1172958 4.5196619-31.512338 2.5473803-3.968-.7526761-7.6268169-2.4265916-11.0936338-4.8531831-3.39740849-2.6348169-6.17104229-6.3792677-8.32000004-11.3712677-2.21836619-5.0614084-3.328-11.8562253-3.328-20.3844507 0-8.5282253 1.31695775-15.3230422 3.8823662-20.5223662 2.35808451-5.2002253 5.40845071-9.0834929 9.15200004-11.648 3.6750422-2.5663098 7.488-4.29971826 11.5100845-5.20022531 3.9517746-.832 7.5574084-1.17904225 10.816-1.17904225 4.8612957.064 15.3753239 1.35121127 20.4114929 4.64946476v16.6409014c-5.1867042-2.6537464-12.4051831-3.9634929-18.1931267-4.0950986-1.7334085 0-3.4668169.207324-5.1299155.5543662-1.6649014.4849578-3.1900845 1.4557747-4.5764507 2.9115493-1.2484507 1.4566761-2.2877747 3.6750423-3.0512676 6.5180845-.9708169 2.9115493-1.3863662 6.656-1.3863662 11.3703662 0 4.16.3470422 7.5574085 1.1096338 10.1228169.5543662 2.6348169 1.2836056 4.795493 2.496 6.2404507 4.5115493 5.3778029 14.5198873 3.5416339 21.336338 1.7649578.6030423 5.4688451 1.979493 11.4019155 5.8771831 15.9332958"/><path d="m92.5124507 47.6854085-4.1545915.1379154c-4.5070423 0-7.7656338.7625916-9.7072677 2.3571831-2.0110422 1.595493-2.9809577 4.5070423-2.9115492 8.7364507 0 3.5362254.6237746 5.8934085 1.9407323 7.2112677 1.2484508 1.3169577 2.9818592 1.8632112 4.992 1.8028169 2.4545353-.0748169 4.2492395-.6517184 6.1106479-1.6108169.0009014 2.3887323.0018029 4.7765633.0018029 7.1643943 0 2.3860282.4389859 4.2050704 1.2060845 5.5914366-2.6898029 1.2169014-4.4286198 2.1417465-7.3455775 2.9665352-3.5939155 1.0167888-7.128338 1.7649578-9.540507 1.8352677-16.6228733.4795493-20.8009015-11.9184226-20.8009015-23.7124507 0-5.0614085.9708169-9.152 2.9124507-12.3420846 1.8028169-3.1891831 4.0211831-5.5463662 6.7948169-7.2103662 2.9115493-1.7334084 5.8934085-2.9124507 9.0131831-3.6056338 3.1206761-.4849577 6.0322254-.6931831 8.7364508-.6931831h12.7576338v-4.2988169c0-2.8430422-.6931831-4.7837746-2.2192677-5.6851831-1.4557746-.832-3.8823661-1.2484507-7.2103661-1.2484507-4.0581409.0558874-19.6696339 1.7099719-23.2969015 3.9526761v-17.1258592c8.1000564-3.13239432 22.1827606-4.25194362 27.0404507-4.29881686 8.3209015-.06940845 15.1842254 1.3863662 20.6620844 4.43763376 2.704226 1.8028169 4.783775 4.2988169 6.378366 7.488 1.387268 3.328 2.080451 7.5574085 2.080451 12.6188169 0 16.7752113.059493 33.5332958.059493 50.3058029l-.064901-.0009014v.2776338h-6.691155c-7.743099 0-16.7436623.8094647-16.7436623-9.9975212 0-6.0962253-.0081127-12.1915493 0-18.288676z"/><path d="m119.965746 8.99605634h19.968l3.051268 7.48890136c.069409-.2082253 2.370704-1.756845 6.933634-4.4376338 2.165183-1.2727887 4.800901-2.1588732 7.764732-3.05126756 2.792564-.84101409 5.755493-1.36292958 8.944676-1.3863662 6.23955-.04597183 11.352338 1.39357747 15.184226 4.57645066 3.934648 3.2667043 5.962817 9.0825916 5.962817 17.3331831v42.9746479c0 10.8060845-9.000564 9.9966197-16.743662 9.9966197h-6.691155v-50.1976338c0-2.4265915-.381296-4.124845-1.248451-4.992-.867155-.8680563-2.634817-1.2078873-5.130817-1.1790422-3.536225.0405634-6.720901.7743099-9.706366 2.1489577-3.184676 1.467493-4.784676 2.2886761-4.854085 2.3580845v51.8616338l-23.285183-.0261408c0-24.6508169-.149634-48.8869859-.149634-73.46839436"/><path d="m199.842254.63278873c6.025915 0 10.940394 4.91538028 10.940394 10.94039437 0 6.0259155-4.914479 10.9403944-10.940394 10.9403944-6.025015 0-10.940395-4.9144789-10.940395-10.9403944 0-6.02501409 4.91538-10.94039437 10.940395-10.94039437"/></g></svg>

<?xml version="1.0" encoding="UTF-8" standalone="no"?>
<svg width="256px" height="102px" viewBox="0 0 256 102" version="1.1" xmlns="http://www.w3.org/2000/svg" xmlns:xlink="http://www.w3.org/1999/xlink" preserveAspectRatio="xMidYMid">
	<g fill="#1A1918">
		<path d="M185.537803,100.278986 L180.027493,89.2583662 L181.401239,88.5110986 C182.898479,87.6962254 184.223549,86.8948732 185.380958,86.1025352 C186.498704,85.336338 187.437972,84.5926761 188.201465,83.864338 C188.923493,83.1774648 189.539155,82.4383099 190.049352,81.6369577 C190.547831,80.8545352 190.93093,80.0369577 191.198648,79.1743099 L191.197746,79.1743099 L191.201352,79.1625915 C191.268958,78.931831 191.337465,78.6686197 191.407775,78.3729577 C191.483493,78.0511549 191.54569,77.7627042 191.592563,77.5076056 C191.880113,75.9598873 192.023437,74.1273239 191.996394,72.0333521 L191.996394,26.5149296 L208.732845,26.5149296 L208.732845,71.8539718 C208.738254,72.2541972 208.739155,72.6562254 208.735549,73.0591549 C208.731042,73.4855211 208.72293,73.8866479 208.71031,74.264338 C208.643606,76.3051268 208.456113,78.3269859 208.161352,80.2983662 L208.161352,80.300169 C208.099155,80.723831 208.029746,81.1240563 207.95493,81.4999437 C207.881014,81.8722254 207.791775,82.264338 207.687211,82.6744789 C207.179718,84.6792113 206.416225,86.5938028 205.412958,88.4191549 L205.406648,88.4254648 C204.664789,89.7559437 203.754366,91.0143099 202.670873,92.1978592 C201.604507,93.3633803 200.342535,94.4865352 198.880451,95.5673239 L198.867831,95.5799437 L198.86693,95.5799437 L198.866028,95.5781408 C198.432451,95.8972394 198.013296,96.1901972 197.606761,96.4552113 C197.187606,96.7292394 196.727887,97.0113803 196.226704,97.3025352 C193.800113,98.7105352 190.892169,99.9797183 187.487549,101.095662 L186.16338,101.529239 L185.537803,100.278986 L185.537803,100.278986 Z M230.744338,86.419831 C229.150648,86.419831 227.696676,86.3702535 226.369803,86.2819155 C225.084394,86.1953803 223.808901,86.060169 222.557746,85.888 L222.526197,85.8816901 C221.348056,85.6987042 220.229408,85.4949859 219.179268,85.2606197 C218.086761,85.0172394 217.08169,84.7450141 216.177577,84.4376338 C215.275268,84.1293521 214.409014,83.7841127 213.577014,83.4136338 C212.766648,83.052169 211.998648,82.668169 211.267606,82.2715493 L210.011944,81.5891831 L214.903887,69.1569577 L216.385803,69.7059155 L216.386704,69.7059155 L216.385803,69.7086197 C216.62107,69.7942535 216.83831,69.8717746 217.038423,69.9411831 C217.096113,69.9619155 217.315155,70.0349296 217.683831,70.1566197 C218.821408,70.532507 219.888676,70.8380845 220.864,71.0760563 L220.896451,71.0823662 C221.583324,71.2626479 222.299042,71.4203944 223.047211,71.5538028 C223.818817,71.6908169 224.566085,71.7953803 225.29262,71.8665915 L225.330479,71.8665915 C226.073239,71.9567324 226.894423,72.0216338 227.791324,72.0658028 C228.699042,72.1099718 229.629296,72.1298028 230.586592,72.1298028 L230.587493,72.1298028 C232.157746,72.1298028 233.501746,72.0126197 234.63031,71.7863662 C234.882704,71.7358873 235.056676,71.6989296 235.152225,71.675493 C235.964394,71.4762817 236.636845,71.2184789 237.175887,70.9047887 L237.175887,70.9038873 C237.181296,70.9011831 237.185803,70.8975775 237.191211,70.8939718 L237.193915,70.8912676 L237.194817,70.8912676 L237.195718,70.892169 C237.333634,70.808338 237.477859,70.7073803 237.627493,70.5910986 L237.631099,70.5947042 C237.756394,70.4964507 237.87538,70.3900845 237.986254,70.2756056 C238.489239,69.7609014 238.744338,69.1109859 238.751549,68.3384789 C238.738028,67.8490141 238.624451,67.4091268 238.413521,67.0134085 C238.183662,66.5816338 237.837521,66.1823099 237.379606,65.8100282 L237.380507,65.8100282 C236.822535,65.3755493 236.179831,64.955493 235.448789,64.5480563 C234.696113,64.128 233.854197,63.7250704 232.918535,63.3383662 L232.917634,63.3410704 C231.849465,62.9219155 230.807437,62.5054648 229.790648,62.0917183 C228.953239,61.7500845 227.85262,61.292169 226.486986,60.7170704 C225.296225,60.2158873 224.154141,59.6714366 223.062535,59.0801127 C221.951099,58.4779718 220.871211,57.8208451 219.823775,57.1024225 L219.821972,57.1060282 C218.722254,56.3722817 217.72169,55.5222535 216.816676,54.5613521 C215.918873,53.6103662 215.129239,52.5629296 214.442366,51.4235493 L214.434254,51.411831 C214.230535,51.072 214.042141,50.7267606 213.870873,50.3743099 C213.712225,50.048 213.553577,49.6811268 213.395831,49.2727887 C212.657577,47.3627042 212.265465,45.1785915 212.234817,42.7547042 L212.234817,42.7168451 C212.256451,41.2610704 212.420507,39.896338 212.739606,38.6109296 C213.06231,37.3065915 213.543662,36.0996056 214.192676,34.9809577 L214.198986,34.9674366 C214.833577,33.8947606 215.580845,32.9176338 216.434479,32.0315493 C217.290817,31.1418592 218.237296,30.355831 219.27031,29.6680563 L219.289239,29.6617465 C220.336676,28.9775775 221.434592,28.3907606 222.589296,27.8958873 C223.742197,27.4019155 224.94738,26.9989859 226.208451,26.6843944 L226.208451,26.6852958 C227.467718,26.3508732 228.738704,26.1110986 230.016901,25.9551549 C231.305915,25.7992113 232.602141,25.7261972 233.90107,25.7261972 L233.903775,25.7261972 C235.445183,25.7261972 236.835155,25.7757746 238.081803,25.8695211 C238.366648,25.8902535 238.573972,25.9073803 238.701972,25.9181972 C239.685408,26.0056338 240.674254,26.1354366 241.664,26.304 L241.672113,26.304 C241.992113,26.3589859 242.286873,26.4130704 242.557296,26.4662535 C242.852056,26.5239437 243.136,26.5825352 243.409127,26.6429296 C244.835155,26.9557183 246.157521,27.3397183 247.375324,27.7940282 C248.235268,28.0950986 249.023099,28.3970704 249.759549,28.6972394 C250.523042,29.0091268 251.268507,29.3309296 251.994141,29.6536338 L253.441803,30.296338 L248.415549,42.3995493 L247.031887,42.0047324 L247.030085,42.003831 L247.017465,41.9975211 C245.682479,41.604507 244.346592,41.2123944 243.109859,40.9122254 L243.06569,40.9059155 C242.395042,40.7229296 241.760451,40.5723944 241.149296,40.4461972 C240.474141,40.3073803 239.789972,40.1856901 239.09138,40.0748169 L239.09138,40.0757183 C238.468507,39.9918873 237.732056,39.9197746 236.862197,39.8629859 C236.034704,39.8089014 235.185577,39.7791549 234.313915,39.7791549 C233.039324,39.7971831 231.978366,39.9008451 231.139155,40.0946479 C230.419831,40.260507 229.889803,40.4795493 229.553577,40.7535775 L229.534648,40.772507 L229.528338,40.7779155 C229.410254,40.8707606 229.311099,40.9563944 229.232676,41.0339155 C229.155155,41.1105352 229.079437,41.1943662 229.006423,41.2863099 C228.701746,41.6712113 228.561127,42.1138028 228.576451,42.6059718 L228.577352,42.6131831 C228.580958,42.7267606 228.588169,42.8150986 228.599887,42.8763944 C228.615211,42.9575211 228.636845,43.0395493 228.66569,43.1215775 C228.833352,43.6029296 229.242592,44.0698592 229.892507,44.5232676 L229.936676,44.5611268 C230.499155,44.9829859 231.169803,45.3931268 231.933296,45.799662 C232.685972,46.2007887 233.578366,46.616338 234.579831,47.0481127 L234.578028,47.0526197 C235.325296,47.3690141 235.253183,47.3374648 235.442479,47.4176901 C236.221296,47.7503099 236.160901,47.7232676 236.331268,47.7962817 C237.698704,48.3849014 239.291493,49.0870986 241.109634,49.9019718 C242.321127,50.4455211 243.480338,51.0287324 244.586366,51.652507 C245.699606,52.2798873 246.797521,52.967662 247.880113,53.7176338 L247.911662,53.7365634 C248.991549,54.5198873 249.992113,55.3834366 250.899831,56.339831 C251.809352,57.2971268 252.615211,58.3364507 253.301183,59.4677183 L253.301183,59.4668169 C254.039437,60.6305352 254.59831,61.9141408 254.976901,63.3248451 C255.349183,64.7076056 255.54569,66.2021408 255.566423,67.8129577 L255.566423,67.8688451 C255.559211,68.376338 255.541183,68.8261408 255.511437,69.2191549 C255.485296,69.5797183 255.435718,70.0132958 255.364507,70.5180845 C255.049915,72.7418592 254.368451,74.727662 253.320113,76.4736901 C252.592676,77.6860845 251.753465,78.7677746 250.796169,79.7250704 C249.827155,80.6940845 248.740056,81.5432113 247.527662,82.2787606 L247.515042,82.2787606 C246.300845,83.003493 245.048789,83.6263662 243.744451,84.1455775 C242.443718,84.6638873 241.063662,85.0911549 239.588958,85.4282817 C238.144,85.7590986 236.691831,86.0060845 235.222535,86.1701408 C233.736113,86.3369014 232.246986,86.419831 230.744338,86.419831 L230.744338,86.419831 Z"></path>
		<path d="M54.3035493,80.2208451 C44.3871549,82.9809577 33.1862535,84.740507 22.7912113,82.7682254 C18.8232113,82.0155493 15.1643944,80.3416338 11.6975775,77.9150423 C8.30016901,75.2802254 5.52653521,71.5357746 3.37757746,66.5437746 C1.15921127,61.4823662 0.0495774648,54.6875493 0.0495774648,46.1593239 C0.0495774648,37.6310986 1.36653521,30.8362817 3.93194366,25.6369577 C6.29002817,20.4367324 9.34039437,16.5534648 13.0839437,13.9889577 C16.7589859,11.4226479 20.5719437,9.68923944 24.5940282,8.78873239 C28.5458028,7.95673239 32.1514366,7.60969014 35.4100282,7.60969014 C40.2713239,7.67369014 50.7853521,8.96090141 55.8215211,12.2591549 L55.8215211,28.9000563 C50.6348169,26.2463099 43.416338,24.9365634 37.6283944,24.8049577 C35.8949859,24.8049577 34.1615775,25.0122817 32.4984789,25.3593239 C30.8335775,25.8442817 29.3083944,26.8150986 27.9220282,28.2708732 C26.6735775,29.7275493 25.6342535,31.9459155 24.8707606,34.7889577 C23.8999437,37.700507 23.4843944,41.4449577 23.4843944,46.1593239 C23.4843944,50.3193239 23.8314366,53.7167324 24.5940282,56.2821408 C25.1483944,58.9169577 25.8776338,61.0776338 27.0900282,62.5225915 C31.6015775,67.9003944 41.6099155,66.0642254 48.4263662,64.2875493 C49.0294085,69.7563944 50.4058592,75.6894648 54.3035493,80.2208451"></path>
		<path d="M92.5124507,47.6854085 L88.3578592,47.8233239 C83.8508169,47.8233239 80.5922254,48.5859155 78.6505915,50.180507 C76.6395493,51.776 75.6696338,54.6875493 75.7390423,58.9169577 C75.7390423,62.4531831 76.3628169,64.8103662 77.6797746,66.1282254 C78.9282254,67.4451831 80.6616338,67.9914366 82.6717746,67.9310423 C85.1263099,67.8562254 86.9210141,67.2793239 88.7824225,66.3202254 C88.7833239,68.7089577 88.7842254,71.0967887 88.7842254,73.4846197 C88.7842254,75.8706479 89.2232113,77.6896901 89.9903099,79.0760563 C87.300507,80.2929577 85.5616901,81.2178028 82.6447324,82.0425915 C79.0508169,83.0593803 75.5163944,83.8075493 73.1042254,83.8778592 C56.4813521,84.3574085 52.3033239,71.9594366 52.3033239,60.1654085 C52.3033239,55.104 53.2741408,51.0134085 55.2157746,47.8233239 C57.0185915,44.6341408 59.2369577,42.2769577 62.0105915,40.6129577 C64.9221408,38.8795493 67.904,37.700507 71.0237746,37.0073239 C74.1444507,36.5223662 77.056,36.3141408 79.7602254,36.3141408 L92.5178592,36.3141408 L92.5178592,32.0153239 C92.5178592,29.1722817 91.8246761,27.2315493 90.2985915,26.3301408 C88.8428169,25.4981408 86.4162254,25.0816901 83.0882254,25.0816901 C79.0300845,25.1375775 63.4185915,26.791662 59.7913239,29.0343662 L59.7913239,11.908507 C67.8913803,8.77611268 81.9740845,7.65656338 86.8317746,7.60969014 C95.1526761,7.54028169 102.016,8.99605634 107.493859,12.0473239 C110.198085,13.8501408 112.277634,16.3461408 113.872225,19.5353239 C115.259493,22.8633239 115.952676,27.0927324 115.952676,32.1541408 C115.952676,48.9293521 116.012169,65.6874366 116.012169,82.4599437 L115.947268,82.4590423 L115.947268,82.7366761 L109.256113,82.7366761 C101.513014,82.7366761 92.5124507,83.5461408 92.5124507,72.7391549 C92.5124507,66.6429296 92.504338,60.5476056 92.5124507,54.4504789 L92.5124507,47.6854085"></path>
		<path d="M119.965746,8.99605634 L139.933746,8.99605634 L142.985014,16.4849577 C143.054423,16.2767324 145.355718,14.7281127 149.918648,12.0473239 C152.083831,10.7745352 154.719549,9.8884507 157.68338,8.99605634 C160.475944,8.15504225 163.438873,7.63312676 166.628056,7.60969014 C172.867606,7.56371831 177.980394,9.00326761 181.812282,12.1861408 C185.74693,15.4528451 187.775099,21.2687324 187.775099,29.5193239 L187.775099,72.4939718 C187.775099,83.3000563 178.774535,82.4905915 171.031437,82.4905915 L164.340282,82.4905915 L164.340282,32.2929577 C164.340282,29.8663662 163.958986,28.1681127 163.091831,27.3009577 C162.224676,26.4329014 160.457014,26.0930704 157.961014,26.1219155 C154.424789,26.1624789 151.240113,26.8962254 148.254648,28.2708732 C145.069972,29.7383662 143.469972,30.5595493 143.400563,30.6289577 L143.400563,82.4905915 L120.11538,82.4644507 C120.11538,57.8136338 119.965746,33.5774648 119.965746,8.99605634"></path>
		<path d="M199.842254,0.632788732 C205.868169,0.632788732 210.782648,5.54816901 210.782648,11.5731831 C210.782648,17.5990986 205.868169,22.5135775 199.842254,22.5135775 C193.817239,22.5135775 188.901859,17.5990986 188.901859,11.5731831 C188.901859,5.54816901 193.817239,0.632788732 199.842254,0.632788732"></path>
	</g>
</svg>
